X:39
T: Es stehen drei Sterne am Himmel (Band 1), S. 122
N: P0813
O: Lothringen
S: PINCK, Louis: Verklingende Weisen, Bd 1, Metz 1928]
R: Verfhrung, Mord]
M: 3/8
L: 1/16
K: C
G2 | c2c2G2 | A2A2GF | E6 | D4z2
A4c2 | B2B2A2 | G2B2A2 | G4
G2 | c2c2G2 | A2A2GF | E6 | D4z2
A4c2 | B2B2A2 | G2B2A2 | G4

